X: 305715
M: 2/4
L: 1/16
K: G
d2 |\
gfed gfed | d3c B2d2 | dcBA GFED | G2B2 G2d2 |\
gfed gfed | d3c B2d2 | dcBA GFED | G2B2G2 H|]
(BG) |\
gfed gfed | d^cd=c Bc^cd | dcBA GFED | G2B2"^D.C."G2 |]
d2 |\
^ceg2 gec2 | d2df a2fd | ceag fedc | dfe^c d2d2 |\
gfed gfed | edef agfe | dgBd dcBA | G2g2"^D.C."g2 |]


